assets/images/add.svg

<svg height="448pt" viewBox="0 0 448 448" width="448pt" xmlns="http://www.w3.org/2000/svg"><path d="m408 184h-136c-4.417969 0-8-3.582031-8-8v-136c0-22.089844-17.910156-40-40-40s-40 17.910156-40 40v136c0 4.417969-3.582031 8-8 8h-136c-22.089844 0-40 17.910156-40 40s17.910156 40 40 40h136c4.417969 0 8 3.582031 8 8v136c0 22.089844 17.910156 40 40 40s40-17.910156 40-40v-136c0-4.417969 3.582031-8 8-8h136c22.089844 0 40-17.910156 40-40s-17.910156-40-40-40zm0 0"/></svg>

<svg width="448" height="448" viewBox="0 0 448 448" fill="none" xmlns="http://www.w3.org/2000/svg">
<path d="M408 184H272C267.582 184 264 180.418 264 176V40C264 17.9102 246.09 0 224 0C201.91 0 184 17.9102 184 40V176C184 180.418 180.418 184 176 184H40C17.9102 184 0 201.91 0 224C0 246.09 17.9102 264 40 264H176C180.418 264 184 267.582 184 272V408C184 430.09 201.91 448 224 448C246.09 448 264 430.09 264 408V272C264 267.582 267.582 264 272 264H408C430.09 264 448 246.09 448 224C448 201.91 430.09 184 408 184Z" fill="white"/>
</svg>
